X: 1178
T: An Coileach Ag Fogairt An Lae
R: jig
M: 6/8
K: Amajor
A|c3 cBA|c3 c2 B|A2 c cBA|B3 BcB|
A3 cBA|e3 f3|ecA BcB|A2 F E2 F|
A2 c cBA|cdc c2 B|A2 c cBA|BAB BcB|
A3 cBA|e3 fef|ecA BcB|A3 A2||
|:e|aee aee|d3 ded|aee aec|BcB Bce|
aba aec|d2 e f2 a|ecA BcB|1 A3 A2:|2 A2 F E2 F||

